src/assets/img/icons/duotone-icons/Text/H2.svg

<svg width="24" height="24" viewBox="0 0 24 24" xmlns="http://www.w3.org/2000/svg"><g fill="none" fill-rule="evenodd"><path d="M0 0h24v24H0z"/><path fill="#335EEA" d="M1.634 19V5.51h1.729v5.757h7.448V5.51h1.729V19h-1.729v-6.061H3.363V19z"/><path d="M14.649 19l5.225-5.681a3.498 3.498 0 01-.627.057c-2.299-.057-3.914-1.824-3.914-3.971 0-2.28 1.786-4.047 4.085-4.047s4.104 1.767 4.104 4.047c0 1.596-.703 2.85-2.337 4.617l-3.116 3.458h5.453V19h-8.873zm4.769-7.049c1.444 0 2.489-1.083 2.489-2.546 0-1.444-1.045-2.546-2.489-2.546-1.463 0-2.47 1.102-2.47 2.546 0 1.463 1.007 2.546 2.47 2.546z" fill="#335EEA" opacity=".3"/></g></svg>

<?xml version="1.0" encoding="UTF-8"?>
<svg width="24px" height="24px" viewBox="0 0 24 24" version="1.1" xmlns="http://www.w3.org/2000/svg" xmlns:xlink="http://www.w3.org/1999/xlink">
    <!-- Generator: Sketch 52.2 (67145) - http://www.bohemiancoding.com/sketch -->
    <title>Stockholm-icons / Text / H2</title>
    <desc>Created with Sketch.</desc>
    <g id="Stockholm-icons-/-Text-/-H2" stroke="none" stroke-width="1" fill="none" fill-rule="evenodd">
        <rect id="bound" x="0" y="0" width="24" height="24"></rect>
        <polygon id="H2" fill="#335EEA" points="1.634 19 1.634 5.51 3.363 5.51 3.363 11.267 10.811 11.267 10.811 5.51 12.54 5.51 12.54 19 10.811 19 10.811 12.939 3.363 12.939 3.363 19"></polygon>
        <path d="M14.649,19 L19.874,13.319 C19.646,13.357 19.475,13.376 19.247,13.376 C16.948,13.319 15.333,11.552 15.333,9.405 C15.333,7.125 17.119,5.358 19.418,5.358 C21.717,5.358 23.522,7.125 23.522,9.405 C23.522,11.001 22.819,12.255 21.185,14.022 L18.069,17.48 L23.522,17.48 L23.522,19 L14.649,19 Z M19.418,11.951 C20.862,11.951 21.907,10.868 21.907,9.405 C21.907,7.961 20.862,6.859 19.418,6.859 C17.955,6.859 16.948,7.961 16.948,9.405 C16.948,10.868 17.955,11.951 19.418,11.951 Z" id="Combined-Shape" fill="#335EEA" opacity="0.3"></path>
    </g>
</svg>
